static/img/in-field/btn-ancillary-states-danger-default.svg

<svg fill="none" height="56" viewBox="0 0 110 56" width="110" xmlns="http://www.w3.org/2000/svg"><rect fill="#da212c" height="56" rx="4" width="110"/><path d="m18.1309 21.2949h4.8877c2.0911 0 3.6738.2936 4.748.8809 1.0742.5872 1.6113 1.6185 1.6113 3.0937 0 .5944-.0967 1.1315-.29 1.6114-.1862.4798-.4583.8737-.8164 1.1816s-.7949.5085-1.3106.6016v.1074c.5228.1074.9955.2936 1.418.5586.4225.2578.7591.6373 1.0098 1.1387.2578.4941.3867 1.1529.3867 1.9765 0 .9525-.2328 1.7689-.6983 2.4492-.4654.6804-1.1315 1.2032-1.998 1.5684-.8594.3581-1.8835.5371-3.0723.5371h-5.8759zm3.33 6.2197h1.9336c.9668 0 1.6364-.1503 2.0088-.4511.3724-.308.5586-.7591.5586-1.3535 0-.6016-.222-1.0313-.666-1.2891-.4369-.265-1.1315-.3975-2.084-.3975h-1.751zm0 2.6426v4.0928h2.17c1.0026 0 1.7008-.1934 2.0947-.5801s.5908-.9059.5908-1.5576c0-.3867-.0859-.7269-.2578-1.0205s-.4619-.5228-.8701-.6875c-.4011-.1647-.9561-.2471-1.6651-.2471zm22.4649-5.167v12.0098h-2.5137l-.4404-1.5361h-.1719c-.2578.4082-.5801.7412-.9668.999s-.8128.4476-1.2783.5693c-.4655.1218-.9489.1826-1.4502.1826-.8594 0-1.6078-.1503-2.2451-.4511-.6374-.308-1.1351-.7842-1.4932-1.4287-.3509-.6446-.5264-1.4825-.5264-2.5137v-7.8311h3.2764v7.0147c0 .8594.154 1.5075.4619 1.9443.308.4369.7985.6553 1.4717.6553.666 0 1.1888-.1504 1.5684-.4512.3795-.3079.6445-.7555.7949-1.3428.1575-.5944.2363-1.3177.2363-2.1699v-5.6504zm8.7471 9.6143c.358 0 .7054-.0358 1.0419-.1074.3438-.0716.684-.1612 1.0206-.2686v2.4385c-.351.1575-.7878.2865-1.3106.3867-.5156.1074-1.0814.1611-1.6973.1611-.7161 0-1.3606-.1145-1.9336-.3437-.5657-.2363-1.0133-.641-1.3427-1.2139-.3223-.5801-.4834-1.3857-.4834-2.417v-5.79h-1.5684v-1.3857l1.8047-1.0957.9453-2.5352h2.0947v2.5566h3.3623v2.46h-3.3623v5.79c0 .4584.1289.8021.3868 1.0313.2649.222.6123.333 1.042.333zm9.8105 0c.3581 0 .7054-.0358 1.042-.1074.3437-.0716.6839-.1612 1.0205-.2686v2.4385c-.3509.1575-.7878.2865-1.3105.3867-.5157.1074-1.0814.1611-1.6973.1611-.7162 0-1.3607-.1145-1.9336-.3437-.5658-.2363-1.0134-.641-1.3428-1.2139-.3222-.5801-.4834-1.3857-.4834-2.417v-5.79h-1.5683v-1.3857l1.8046-1.0957.9454-2.5352h2.0947v2.5566h3.3623v2.46h-3.3623v5.79c0 .4584.1289.8021.3867 1.0313.265.222.6123.333 1.042.333zm15.665-3.6309c0 1.0026-.136 1.8907-.4082 2.6641-.2649.7734-.6552 1.4287-1.1709 1.9658-.5084.53-1.1243.931-1.8476 1.2031-.7162.2722-1.5254.4082-2.4278.4082-.845 0-1.622-.136-2.331-.4082-.7018-.2721-1.3141-.6731-1.8369-1.2031-.5156-.5371-.9167-1.1924-1.2031-1.9658-.2793-.7734-.419-1.6615-.419-2.6641 0-1.332.2363-2.4599.709-3.3838.4726-.9238 1.1458-1.6256 2.0195-2.1054s1.9157-.7198 3.126-.7198c1.1243 0 2.1198.24 2.9863.7198.8737.4798 1.5576 1.1816 2.0518 2.1054.5013.9239.7519 2.0518.7519 3.3838zm-8.3037 0c0 .7878.086 1.4502.2578 1.9873.1719.5371.4405.9418.8057 1.2139s.8415.4082 1.4287.4082c.5801 0 1.0492-.1361 1.4072-.4082.3653-.2721.6302-.6768.795-1.2139.1718-.5371.2578-1.1995.2578-1.9873 0-.7949-.086-1.4537-.2578-1.9765-.1648-.53-.4297-.9274-.795-1.1924-.3652-.265-.8414-.3975-1.4287-.3975-.8665 0-1.4967.2972-1.8906.8916-.3867.5944-.5801 1.486-.5801 2.6748zm18.0821-6.209c1.2819 0 2.3131.351 3.0937 1.0528.7806.6946 1.1709 1.8118 1.1709 3.3515v7.8311h-3.2764v-7.0146c0-.8594-.1575-1.5075-.4726-1.9444-.308-.4368-.7949-.6553-1.461-.6553-1.0026 0-1.6865.3402-2.0517 1.0205-.3652.6804-.5479 1.6615-.5479 2.9434v5.6504h-3.2763v-12.0098h2.5029l.4404 1.5362h.1826c.2579-.4154.5765-.752.9561-1.0098.3867-.2578.8128-.4476 1.2783-.5693.4727-.1218.9597-.1827 1.461-.1827z" fill="#fff"/></svg>

<svg width="110" height="56" viewBox="0 0 110 56" fill="none" xmlns="http://www.w3.org/2000/svg"><rect width="110" height="56" rx="4" fill="#DA212C"/><path d="M18.1309 21.2949H23.0186C25.1097 21.2949 26.6924 21.5885 27.7666 22.1758C28.8408 22.763 29.3779 23.7943 29.3779 25.2695C29.3779 25.8639 29.2812 26.401 29.0879 26.8809C28.9017 27.3607 28.6296 27.7546 28.2715 28.0625C27.9134 28.3704 27.4766 28.571 26.9609 28.6641V28.7715C27.4837 28.8789 27.9564 29.0651 28.3789 29.3301C28.8014 29.5879 29.138 29.9674 29.3887 30.4688C29.6465 30.9629 29.7754 31.6217 29.7754 32.4453C29.7754 33.3978 29.5426 34.2142 29.0771 34.8945C28.6117 35.5749 27.9456 36.0977 27.0791 36.4629C26.2197 36.821 25.1956 37 24.0068 37H18.1309V21.2949ZM21.4609 27.5146H23.3945C24.3613 27.5146 25.0309 27.3643 25.4033 27.0635C25.7757 26.7555 25.9619 26.3044 25.9619 25.71C25.9619 25.1084 25.7399 24.6787 25.2959 24.4209C24.859 24.1559 24.1644 24.0234 23.2119 24.0234H21.4609V27.5146ZM21.4609 30.1572V34.25H23.6309C24.6335 34.25 25.3317 34.0566 25.7256 33.6699C26.1195 33.2832 26.3164 32.764 26.3164 32.1123C26.3164 31.7256 26.2305 31.3854 26.0586 31.0918C25.8867 30.7982 25.5967 30.569 25.1885 30.4043C24.7874 30.2396 24.2324 30.1572 23.5234 30.1572H21.4609ZM43.9258 24.9902V37H41.4121L40.9717 35.4639H40.7998C40.542 35.8721 40.2197 36.2051 39.833 36.4629C39.4463 36.7207 39.0202 36.9105 38.5547 37.0322C38.0892 37.154 37.6058 37.2148 37.1045 37.2148C36.2451 37.2148 35.4967 37.0645 34.8594 36.7637C34.222 36.4557 33.7243 35.9795 33.3662 35.335C33.0153 34.6904 32.8398 33.8525 32.8398 32.8213V24.9902H36.1162V32.0049C36.1162 32.8643 36.2702 33.5124 36.5781 33.9492C36.8861 34.3861 37.3766 34.6045 38.0498 34.6045C38.7158 34.6045 39.2386 34.4541 39.6182 34.1533C39.9977 33.8454 40.2627 33.3978 40.4131 32.8105C40.5706 32.2161 40.6494 31.4928 40.6494 30.6406V24.9902H43.9258ZM52.6729 34.6045C53.0309 34.6045 53.3783 34.5687 53.7148 34.4971C54.0586 34.4255 54.3988 34.3359 54.7354 34.2285V36.667C54.3844 36.8245 53.9476 36.9535 53.4248 37.0537C52.9092 37.1611 52.3434 37.2148 51.7275 37.2148C51.0114 37.2148 50.3669 37.1003 49.7939 36.8711C49.2282 36.6348 48.7806 36.2301 48.4512 35.6572C48.1289 35.0771 47.9678 34.2715 47.9678 33.2402V27.4502H46.3994V26.0645L48.2041 24.9688L49.1494 22.4336H51.2441V24.9902H54.6064V27.4502H51.2441V33.2402C51.2441 33.6986 51.373 34.0423 51.6309 34.2715C51.8958 34.4935 52.2432 34.6045 52.6729 34.6045ZM62.4834 34.6045C62.8415 34.6045 63.1888 34.5687 63.5254 34.4971C63.8691 34.4255 64.2093 34.3359 64.5459 34.2285V36.667C64.195 36.8245 63.7581 36.9535 63.2354 37.0537C62.7197 37.1611 62.154 37.2148 61.5381 37.2148C60.8219 37.2148 60.1774 37.1003 59.6045 36.8711C59.0387 36.6348 58.5911 36.2301 58.2617 35.6572C57.9395 35.0771 57.7783 34.2715 57.7783 33.2402V27.4502H56.21V26.0645L58.0146 24.9688L58.96 22.4336H61.0547V24.9902H64.417V27.4502H61.0547V33.2402C61.0547 33.6986 61.1836 34.0423 61.4414 34.2715C61.7064 34.4935 62.0537 34.6045 62.4834 34.6045ZM78.1484 30.9736C78.1484 31.9762 78.0124 32.8643 77.7402 33.6377C77.4753 34.4111 77.085 35.0664 76.5693 35.6035C76.0609 36.1335 75.445 36.5345 74.7217 36.8066C74.0055 37.0788 73.1963 37.2148 72.2939 37.2148C71.4489 37.2148 70.6719 37.0788 69.9629 36.8066C69.2611 36.5345 68.6488 36.1335 68.126 35.6035C67.6104 35.0664 67.2093 34.4111 66.9229 33.6377C66.6436 32.8643 66.5039 31.9762 66.5039 30.9736C66.5039 29.6416 66.7402 28.5137 67.2129 27.5898C67.6855 26.666 68.3587 25.9642 69.2324 25.4844C70.1061 25.0046 71.1481 24.7646 72.3584 24.7646C73.4827 24.7646 74.4782 25.0046 75.3447 25.4844C76.2184 25.9642 76.9023 26.666 77.3965 27.5898C77.8978 28.5137 78.1484 29.6416 78.1484 30.9736ZM69.8447 30.9736C69.8447 31.7614 69.9307 32.4238 70.1025 32.9609C70.2744 33.498 70.543 33.9027 70.9082 34.1748C71.2734 34.4469 71.7497 34.583 72.3369 34.583C72.917 34.583 73.3861 34.4469 73.7441 34.1748C74.1094 33.9027 74.3743 33.498 74.5391 32.9609C74.7109 32.4238 74.7969 31.7614 74.7969 30.9736C74.7969 30.1787 74.7109 29.5199 74.5391 28.9971C74.3743 28.4671 74.1094 28.0697 73.7441 27.8047C73.3789 27.5397 72.9027 27.4072 72.3154 27.4072C71.4489 27.4072 70.8187 27.7044 70.4248 28.2988C70.0381 28.8932 69.8447 29.7848 69.8447 30.9736ZM87.9268 24.7646C89.2087 24.7646 90.2399 25.1156 91.0205 25.8174C91.8011 26.512 92.1914 27.6292 92.1914 29.1689V37H88.915V29.9854C88.915 29.126 88.7575 28.4779 88.4424 28.041C88.1344 27.6042 87.6475 27.3857 86.9814 27.3857C85.9788 27.3857 85.2949 27.7259 84.9297 28.4062C84.5645 29.0866 84.3818 30.0677 84.3818 31.3496V37H81.1055V24.9902H83.6084L84.0488 26.5264H84.2314C84.4893 26.111 84.8079 25.7744 85.1875 25.5166C85.5742 25.2588 86.0003 25.069 86.4658 24.9473C86.9385 24.8255 87.4255 24.7646 87.9268 24.7646Z" fill="#fff"/></svg>
